svgs/sharp-solid/temperature-arrow-down.svg

<svg xmlns="http://www.w3.org/2000/svg" viewBox="0 0 576 512"><!--! Font Awesome Pro 6.6.0 by @fontawesome - https://fontawesome.com License - https://fontawesome.com/license (Commercial License) Copyright 2024 Fonticons, Inc. --><path d="M113.8 317.8L128 300.1l0-22.7L128 64l96 0 0 213.5 0 22.7 14.2 17.6C249.4 331.5 256 348.9 256 368c0 44.2-35.8 80-80 80s-80-35.8-80-80c0-19.1 6.6-36.5 17.8-50.3zM288 0L224 0 128 0 64 0l0 64 0 213.5C44 302.2 32 333.7 32 368c0 79.5 64.5 144 144 144s144-64.5 144-144c0-34.3-12-65.8-32-90.5L288 64l0-64zM176 416c26.5 0 48-21.5 48-48c0-20.9-13.4-38.7-32-45.3l0-50.7 0-16-32 0 0 16 0 50.7c-18.6 6.6-32 24.4-32 45.3c0 26.5 21.5 48 48 48zm368-64l-64 0 0-288 0-32-64 0 0 32 0 288-64 0 0 32 96 96 96-96 0-32z"/></svg>

<svg xmlns="http://www.w3.org/2000/svg" viewBox="0 0 576 512"><!--! Font Awesome Pro 6.4.0 by @fontawesome - https://fontawesome.com License - https://fontawesome.com/license (Commercial License) Copyright 2023 Fonticons, Inc. --><path d="M113.8 317.8L128 300.1V277.5 64h96V277.5v22.7l14.2 17.6C249.4 331.5 256 348.9 256 368c0 44.2-35.8 80-80 80s-80-35.8-80-80c0-19.1 6.6-36.5 17.8-50.3zM288 0H224 128 64V64 277.5C44 302.2 32 333.7 32 368c0 79.5 64.5 144 144 144s144-64.5 144-144c0-34.3-12-65.8-32-90.5V64 0zM176 416c26.5 0 48-21.5 48-48c0-20.9-13.4-38.7-32-45.3V272 256H160v16 50.7c-18.6 6.6-32 24.4-32 45.3c0 26.5 21.5 48 48 48zm368-64H480l0-288V32H416V64l0 288H352v32l96 96 96-96V352z"/></svg>
